X:15
T:Cooley's
T:Cooley's reel
M:C|
R:Reel
Z:We often play this tune in a set: <ceili:1>, <ceili:2>, <ceili:3>.
Z:This version was transcribed by Lars Johannesson
D:asin=B000000E87(Mary Bergin: Feadoga Stain 2)
D:asin=B000005CQJ(Tulla Ceili Band: A Celebration Of 50 Years)
D:asin=B0000003N5(John McCutcheon: Water From Another Time)
D:asin=B000003JLO(Maggie Sansone: Dance Upon The Shore)
K:Em
GF|EBBA ~B2EB|~B2AB dBAG|(3FED AD BDAD|(3FED AD BAGF|\
EBBA ~B2EB|~B2AB defg|afe^c dBAF|DEFD E2::\
gf|eB~B2 eBge|eB~B2 gedB|~A2FA DAFB|~A2FA defg|\
eB~B2 eBgf|eB~B2 defg|afec dBAF|DEFD E2:|
